X:1
T:O Little Town of Bethleham
M:4/4
L:1/4
K:F
 A| A A ^G A| c B D G| FE/2-F/2 G C| A2 z A| A A d c| c B D G| FE/2-F/2 A3/2 G/2|\
 F2 z A| A A G F| E2 E E| D E F G| A3 A| A A ^G A| c B D d| c F A3/2 G/2|\
 F3||
